tools/download-figma-icons/icons/outlined-medium/goal.svg

<svg width="24" height="24" viewBox="0 0 24 24" fill="none" xmlns="http://www.w3.org/2000/svg">
<path d="M22.8557 24.0001H1.14841C0.721459 24.0001 0.339446 23.7676 0.137204 23.3925C-0.0650383 23.0174 -0.042567 22.5673 0.197127 22.2147L6.36177 11.975C6.82617 11.2773 7.85986 11.3073 8.28681 11.945L8.80365 12.7101L12.3616 6.82137C12.5938 6.47629 12.9459 6.28125 13.3354 6.28125C13.7174 6.28125 14.0769 6.47629 14.2867 6.79136L23.822 22.2372C24.0392 22.5673 24.0617 23.0174 23.8669 23.3925C23.6722 23.7676 23.2827 24.0001 22.8557 24.0001ZM22.5486 23.0249C22.5486 23.0249 22.5561 23.0399 22.5636 23.0474L22.5486 23.0249ZM1.77012 22.4923H22.2265L13.3354 8.09664L9.72498 14.0679L10.3167 14.9531C10.5489 15.2982 10.459 15.7633 10.1145 15.9959C9.76992 16.2284 9.30551 16.1384 9.07331 15.7933L7.35051 13.2278L1.77012 22.4923Z" fill="black"/>
<path d="M13.2979 7.78854C12.8859 7.78854 12.5488 7.45097 12.5488 7.03838V4.47282C12.5488 4.06023 12.8859 3.72266 13.2979 3.72266C13.7098 3.72266 14.0469 4.06023 14.0469 4.47282V7.03838C14.0469 7.45097 13.7098 7.78854 13.2979 7.78854Z" fill="black"/>
<path d="M12.549 5.71853V1.12003C12.549 0.737448 12.7363 0.384871 13.0583 0.182327C13.3804 -0.0277182 13.7774 -0.0577248 14.122 0.0998095H14.1295L16.9159 1.39009C17.3054 1.56263 17.5526 1.94521 17.5676 2.3728C17.5826 2.8079 17.3504 3.19798 16.9759 3.40053L12.5415 5.71853H12.549ZM14.0471 1.71266V3.24299L15.5976 2.43282L14.0471 1.71266Z" fill="black"/>
</svg>

<svg width="24" height="24" viewBox="0 0 24 24" fill="none" xmlns="http://www.w3.org/2000/svg"><path d="M22.856 24H1.148c-.427 0-.809-.232-1.01-.608a1.13 1.13 0 0 1 .06-1.177l6.164-10.24c.464-.698 1.498-.668 1.925-.03l.517.765 3.558-5.889c.232-.345.584-.54.973-.54.382 0 .742.195.952.51l9.535 15.446c.217.33.24.78.045 1.155a1.134 1.134 0 0 1-1.011.608Zm-.307-.975s.007.015.015.022l-.015-.022ZM1.77 22.492h20.457L13.335 8.097l-3.61 5.97.592.886a.75.75 0 1 1-1.244.84l-1.722-2.565-5.58 9.264Z" fill="currentColor"/><path d="M13.298 7.789a.752.752 0 0 1-.75-.75V4.472c0-.413.338-.75.75-.75s.749.337.749.75v2.565c0 .413-.337.75-.75.75Z" fill="currentColor"/><path d="M12.549 5.719V1.12c0-.383.187-.735.51-.938A1.1 1.1 0 0 1 14.121.1h.008l2.786 1.29c.39.173.637.555.652.983a1.12 1.12 0 0 1-.592 1.028l-4.434 2.318h.007Zm1.498-4.006v1.53l1.55-.81-1.55-.72Z" fill="currentColor"/></svg>
